X:799
T:The Welsh Rabbit
C:Possibly Thompson, c. 1750
M:2/2
L:1/8
Q:1/4=176
S:Blodau'r Grug Collection Vol. 3
K:G
|: "G"g4 "/"d4 | "D7"dcBc "G"d4 | "Em"dcBd "Am"cBAc | "G"BAGB "D7"Adef |\
"G"g4 "/"d4 | "D7"dcBc "G"d2g2 | "Am"cBAc "G"BAGB | "D"AAA2 "/"A4 :|
|: "D"A4 "/"d4 | "Am"cBAG "D7"F2ED | "G"GAB2 "D"A4 | "G"gab2 "D"a4 |\
"G"g4 d4 | "C"edce "G"dcBd | "Am"cBAc "D7"BAGF | "G"GGG2 "/"G4 :|

